X: 1
T: Glentaun, The
M: 4/4
L: 1/8
R: reel
K: Gmaj
DGBG AGBG|DGBG AGEG|DGBG ~A3B|dged BAGE|
DGBG AGBG|DGBG AGEG|DGBG ~A3B|dged BGGd||
~B3c dgef|g2fg eA~A2|B/c/d ef gage|dBAc BGGd|
~B3c dgef|g2fg eA~A2|B/c/d ef gage|dBAc BAGE||
